svg/u1F317.svg

<svg viewBox="0 0 2600 2760.837" xmlns="http://www.w3.org/2000/svg"><path d="M2148 1923.5q-133 228.5-360.5 358t-487.5 129.5-487.5-129.5-360.5-358-133-493.5q0-263 131.5-490.5t359-359 490.5-131.5 490.5 131.5 359 359 131.5 490.5q0 265-133 493.5z m-848-1356.5q-229 0-430.5 115.5t-317 317-115.5 430.5 115.5 430.5 317 317 430.5 115.5v-1726z"/></svg>

<svg viewBox="0 0 2600 2760.837" xmlns="http://www.w3.org/2000/svg"><path d="M2148 1923.5q-133 228.5-360.5 358T1300 2411t-487.5-129.5-360.5-358T319 1430q0-263 131.5-490.5t359-359T1300 449t490.5 131.5 359 359T2281 1430q0 265-133 493.5zM1300 567q-229 0-430.5 115.5t-317 317T437 1430t115.5 430.5 317 317T1300 2293V567z"/></svg>
